src/assets/winglogo.svg

<?xml version="1.0" encoding="UTF-8"?>
<svg width="43" height="20" viewBox="0 0 43 20" fill="none" xmlns="http://www.w3.org/2000/svg">
<g clip-path="url(#clip0_1590_112478)">
<path d="M5.02622 14.5155L6.95725 9.67454L5.62193 6.58113C4.99508 5.01434 3.47936 3.98706 1.79497 3.98706H0.396467C0.177338 3.98706 0 4.16485 0 4.38453C0 4.54849 0.10016 4.69349 0.248529 4.75391L0.251548 4.75514L0.254592 4.75631C0.758515 4.9493 1.086 5.33343 1.40636 5.91714L5.02622 14.5155Z" fill="#009EDB"/>
<path fill-rule="evenodd" clip-rule="evenodd" d="M20.7094 0H19.3324C17.6499 0.00112083 16.136 1.02744 15.5086 2.59183L11.1397 12.3118C10.6917 13.2698 10.3407 13.873 9.65868 14.1339C9.50045 14.1939 9.40332 14.3451 9.40332 14.506C9.40332 14.7257 9.58065 14.9035 9.79979 14.9035L11.1776 14.9035L11.1784 14.9035C12.8576 14.899 14.367 13.8738 14.9933 12.3117L19.3127 2.71574C19.7886 1.68872 20.1381 1.04238 20.8507 0.769474C21.0088 0.709455 21.1058 0.558286 21.1058 0.397468C21.1058 0.177785 20.9285 0 20.7094 0Z" fill="#0E4194"/>
<path d="M13.0779 3.57209C11.3954 3.57321 9.88153 4.59947 9.25414 6.16378L6.8874 11.4172C6.88554 11.4213 6.88378 11.4254 6.8821 11.4296L5.66579 14.4765C5.6275 14.5725 5.63917 14.6812 5.69693 14.7667C5.7547 14.8523 5.85105 14.9036 5.9541 14.9036H6.75532L6.75766 14.9035C8.39118 14.8912 9.85873 13.9135 10.5079 12.4166L14.1246 4.03327C14.13 4.02338 14.1349 4.01312 14.1393 4.00253C14.1874 3.88618 14.1608 3.75226 14.0719 3.66323L14.0709 3.66219C14.006 3.59719 13.9163 3.56466 13.826 3.57209L13.0779 3.57209Z" fill="#0E4194"/>
<path d="M30.3267 5.53448H29.1611C29.1135 5.53448 29.0752 5.57288 29.0752 5.62062C29.0752 5.6559 29.0969 5.68808 29.1301 5.70157C29.8557 5.97865 29.9302 6.59094 29.9354 7.38691V12.004C29.9354 13.433 31.0917 14.5922 32.5171 14.5922H32.9084V8.12166C32.9084 6.69264 31.7521 5.53345 30.3267 5.53345V5.53448Z" fill="#0E4194"/>
<path d="M28.6593 5.53442H27.4937C27.1014 5.53442 26.7319 5.62471 26.3985 5.78141C26.0652 5.62471 25.6957 5.53442 25.3033 5.53442H24.1367C24.0891 5.53442 24.0508 5.57282 24.0508 5.62056C24.0508 5.65584 24.0725 5.68801 24.1056 5.70151C24.8313 5.97859 24.9058 6.59088 24.911 7.38685V12.0039C24.911 12.5622 25.0901 13.078 25.3903 13.5014C25.6004 13.7972 25.8696 14.0452 26.1822 14.231C26.5673 14.4593 27.0134 14.5921 27.4927 14.5921H27.884V7.38685C27.8892 6.59088 27.9637 5.97963 28.6893 5.70151C28.7225 5.68905 28.7442 5.65688 28.7442 5.62056C28.7442 5.57282 28.7059 5.53442 28.6583 5.53442H28.6593Z" fill="#0E4194"/>
<path d="M37.1986 7.38685C37.2037 6.59088 37.2783 5.97963 38.0039 5.70151C38.0371 5.68905 38.0588 5.65688 38.0588 5.62056C38.0588 5.57282 38.0205 5.53442 37.9729 5.53442H36.8073C35.3819 5.53442 34.2256 6.69362 34.2256 8.12263V12.005C34.2256 13.434 35.3819 14.5932 36.8073 14.5932H37.9729C38.0205 14.5932 38.0588 14.5548 38.0588 14.507C38.0588 14.4717 38.0371 14.4396 38.0039 14.4261C37.2783 14.149 37.2037 13.5357 37.1986 12.7397V7.38789V7.38685Z" fill="#0E4194"/>
<path d="M38.0047 19.8339C37.2791 19.5568 37.2045 18.9445 37.1994 18.1485V17.3909C37.1994 15.9619 36.0431 14.8027 34.6177 14.8027H33.7637C33.716 14.8027 33.6777 14.8411 33.6777 14.8889C33.6777 14.9242 33.6995 14.9563 33.7326 14.9698C34.4582 15.2469 34.5328 15.8592 34.538 16.6552V17.4117C34.538 18.8407 35.6942 19.9999 37.1196 19.9999H37.9737C38.0213 19.9999 38.0596 19.9615 38.0596 19.9138C38.0596 19.8785 38.0378 19.8463 38.0047 19.8328V19.8339Z" fill="#0E4194"/>
<path d="M39.6402 5.53442H38.4746C38.427 5.53442 38.3887 5.57282 38.3887 5.62056C38.3887 5.65584 38.4104 5.68801 38.4435 5.70151C39.1692 5.97859 39.2437 6.59088 39.2489 7.38685V18.1475C39.2437 18.9435 39.1692 19.5558 38.4435 19.8329C38.4104 19.8453 38.3887 19.8775 38.3887 19.9138C38.3887 19.9616 38.427 20 38.4746 20H39.6402C41.0656 20 42.2219 18.8408 42.2219 17.4118V8.12263C42.2219 6.69362 41.0656 5.53442 39.6402 5.53442Z" fill="#0E4194"/>
<path d="M23.1523 5.53467H21.9743C20.5489 5.53467 19.3926 6.69386 19.3926 8.12288V14.5934H19.7963C21.2217 14.5934 22.378 13.4342 22.378 12.0052V7.36011C22.3852 6.57763 22.466 5.97676 23.1833 5.70175C23.2165 5.6893 23.2382 5.65713 23.2382 5.6208C23.2382 5.57307 23.1999 5.53467 23.1523 5.53467Z" fill="#0E4194"/>
<path d="M21.3829 4.67538C22.2152 4.67538 23.0102 3.99875 23.1562 3.16334C23.3032 2.32897 22.7473 1.65234 21.914 1.65234C21.0807 1.65234 20.2867 2.32897 20.1408 3.16438C19.9938 3.99875 20.5496 4.67642 21.3829 4.67642V4.67538Z" fill="#0E4194"/>
</g>
<defs>
<clipPath id="clip0_1590_112478">
<rect width="42.2222" height="20" fill="white"/>
</clipPath>
</defs>
</svg>

<svg xmlns="http://www.w3.org/2000/svg" width="43" height="20" fill="none"><g clip-path="url(#a)"><path fill="#009EDB" d="m5.026 14.516 1.931-4.841L5.622 6.58a4.12 4.12 0 0 0-3.827-2.594H.396a.397.397 0 0 0-.147.767l.003.001.003.001c.504.193.831.577 1.151 1.161z"/><path fill="#0E4194" fill-rule="evenodd" d="M20.71 0h-1.378a4.125 4.125 0 0 0-3.823 2.592l-4.37 9.72c-.447.958-.798 1.561-1.48 1.822a.397.397 0 0 0 .14.77h1.379a4.12 4.12 0 0 0 3.815-2.592l4.32-9.596c.476-1.027.825-1.674 1.538-1.947A.397.397 0 0 0 20.709 0" clip-rule="evenodd"/><path fill="#0E4194" d="M13.078 3.572a4.125 4.125 0 0 0-3.824 2.592l-2.366 5.253-.006.013-1.216 3.047a.312.312 0 0 0 .288.426h.804a4.12 4.12 0 0 0 3.75-2.486l3.617-8.384.014-.03a.31.31 0 0 0-.313-.43zM30.327 5.534h-1.166a.086.086 0 0 0-.085.087c0 .035.021.067.055.08.725.278.8.89.805 1.686v4.617a2.586 2.586 0 0 0 2.581 2.588h.392v-6.47a2.585 2.585 0 0 0-2.582-2.589zM28.66 5.534h-1.166c-.392 0-.762.09-1.095.247a2.6 2.6 0 0 0-1.096-.247h-1.166a.086.086 0 0 0-.086.087c0 .035.022.067.055.08.725.278.8.89.805 1.686v4.617a2.598 2.598 0 0 0 1.271 2.227c.385.228.832.361 1.31.361h.392V7.387c.005-.796.08-1.407.805-1.685a.09.09 0 0 0 .055-.081.086.086 0 0 0-.085-.087M37.199 7.387c.005-.796.08-1.407.805-1.685a.09.09 0 0 0 .055-.081.086.086 0 0 0-.086-.087h-1.166a2.586 2.586 0 0 0-2.581 2.589v3.882a2.586 2.586 0 0 0 2.581 2.588h1.166a.086.086 0 0 0 .086-.086.09.09 0 0 0-.055-.08c-.726-.278-.8-.891-.805-1.687zM38.005 19.834c-.726-.277-.8-.89-.805-1.685v-.758a2.586 2.586 0 0 0-2.582-2.588h-.854a.086.086 0 0 0-.086.086c0 .035.022.067.055.08.726.278.8.89.805 1.686v.757A2.586 2.586 0 0 0 37.12 20h.854a.086.086 0 0 0 .086-.086.09.09 0 0 0-.055-.081M39.64 5.534h-1.165a.086.086 0 0 0-.086.087c0 .035.022.067.055.08.726.278.8.89.805 1.686v10.76c-.005.797-.08 1.409-.805 1.686a.09.09 0 0 0-.055.08c0 .049.038.087.086.087h1.166a2.585 2.585 0 0 0 2.581-2.588v-9.29a2.585 2.585 0 0 0-2.581-2.588M23.153 5.534h-1.178a2.585 2.585 0 0 0-2.582 2.589v6.47h.404a2.586 2.586 0 0 0 2.581-2.588V7.36c.007-.783.088-1.383.805-1.658a.09.09 0 0 0 .055-.081.086.086 0 0 0-.085-.087M21.383 4.675c.832 0 1.627-.676 1.773-1.512.147-.834-.409-1.51-1.242-1.51s-1.627.676-1.773 1.511c-.147.835.409 1.512 1.242 1.512"/></g><defs><clipPath id="a"><path fill="#fff" d="M0 0h42.222v20H0z"/></clipPath></defs></svg>
